X:1
T:Brighten the Corner Where You Are
T:Charles Hutchinson Gabriel
T:Brighten the Corner Where You Are
T:Public Domain
T:Public Domain
C:Charles Hutchinson Gabriel
Z:Public Domain
%%score ( 1 2 ) ( 3 4 )
L:1/8
M:4/4
K:D
V:1 treble 
V:2 treble 
V:3 bass 
V:4 bass 
V:1
 [DF][EG] | [FA][FA][=F^G][^FA] [Fd][Fd][FA][DF] | [DA]2 [D^G]2 [C=G]2 [CG][CA] | %3
w: 1.~Do not|wait un- til some deed of great- ness|you may do, Do not|
w: 2.~Just a-|bove are cloud- ed skies that you may|help to clear, Let not|
w: 3.~Here for|all your tal- ent you may sure- ly|find a need, Here re-|
 [Gc]3 [GB] [FA][GB][FA][EG] | [DF]6 [DF][EG] | [FA][FA][=F^G][^FA] [Fd][Fd][DF][FA] | %6
w: wait to shed your light a-|far, To the|ma- ny du- ties ev- er near you|
w: nar- row self your way de-|bar; Though in-|to one heart a- lone may fall your|
w: flect the bright and Morn- ing|Star; Ev- en|from your hum- ble hand the Bread of|
 [Ac]2 [GB]2 [GB]4 | [Fd] [Fd]2 [FB] [FA] [FB]3 | [DF]2 [CE]2 D4 || %9
w: now be true,|Bright- en the cor- ner|where you are.|
w: song of cheer,|Bright- en the cor- ner|where you are.|
w: Life may feed,|Bright- en the cor- ner|where you are.|
"^Refrain" [Fd] [Fd]2 [Fd] [Fd] [DA]3 | [Gc]2 [Gc]2 [Gc]4 | [Gc] [Gc]2 [Gc] [Gc] [EG]3 | %12
w: |||
w: |||
w: |||
 [FB]2 [FA]2 [FA]4 | [Fd][Fd][Fd][Fd] [Fd][FA][=F^G][^FA] | [Ac][GB][GB][GB] [GB]4 | %15
w: |||
w: |||
w: |||
 [Fd] [Fd]2 [FB] [FA] [FB]3 | [DF]2 [CE]2 D2- | D6 |] %18
w: |||
w: |||
w: |||
V:2
 x2 | x8 | x8 | x8 | x8 | x8 | x8 | x8 | x4 D4 || x8 | x8 | x8 | x8 | x8 | x8 | x8 | x4 D2- | D6 |] %18
V:3
 [D,A,][D,A,] | [D,D][D,D][D,D][D,D] [D,A,][D,A,][D,D][D,A,] | %2
w: ~ ~|~ ~ ~ ~ ~ ~ ~ ~|
 [F,A,]2 [=F,B,]2 [E,A,]2 [E,A,][E,A,] | [A,,A,]3 [A,,G,] [A,,G,][A,,G,][A,,G,][A,,G,] | %4
w: ~ ~ ~ ~ ~|~ ~ ~ ~ ~ ~|
 [D,A,]6 [D,A,][D,A,] | [D,D][D,D][D,D][D,D] [D,A,][D,A,][D,A,][D,D] | [G,D]2 [G,D]2 [G,D]4 | %7
w: ~ ~ ~|~ ~ ~ ~ ~ ~ ~ ~|~ ~ ~|
 A, A,2 [A,D] [A,D] [A,D]3 | [A,,A,]2 [A,,A,]2 [D,F,]4 || [D,A,] [D,A,]2 [D,A,] [D,A,] [F,D]3 | %10
w: ~ ~ ~ ~ ~|~ Bright- en|the cor- ner where you|
 (E,A,,)(C,E,) (A,-G,F,C,) | [A,,A,] [A,,A,]2 [A,,A,] [A,,A,] [A,,C]3 | [D,D]2 [D,D]2 [D,D]4 | %13
w: are! * Bright- * en * * *|ner where you are! Some-|one far from|
 [D,A,][D,A,][D,A,][D,A,] [D,A,][D,D][D,D][D,D] | [G,D][G,D][G,D][G,D] [G,D]4 | %15
w: har- bor you may guide a- cross the|bar; Bright- en the cor-|
 A, A,2 [A,D] [A,D] [A,D]3 | [A,,A,]2 [A,,G,]2 [D,F,]2- | [D,F,]6 |] %18
w: ner where you are! *|||
V:4
 x2 | x8 | x8 | x8 | x8 | x8 | x8 | A, A,2 x5 | x8 || x8 | A,2 A,2 A,3 x | x8 | x8 | x8 | x8 | %15
w: |||||||~ ~|||* the cor-|||||
 A, A,2 x5 | x6 | x6 |] %18
w: |||

